SharedPackages/Infrastructure/DesignResourcesKitIcons/Sources/DesignResourcesKitIcons/DesignSystemImages.xcassets/Color/16px/Sync-Color-16.imageset/Sync-Color-16.svg

<svg width="16" height="16" viewBox="0 0 16 16" fill="none" xmlns="http://www.w3.org/2000/svg">
<g clip-path="url(#clip0_13193_106903)">
<path d="M7.74951 0.5C11.0265 0.5 13.8285 2.46839 14.9619 5.25H11.5547C10.4185 3.87882 8.6738 3.00004 6.71631 3C3.89986 3.00007 1.52188 4.81752 0.766602 7.30664L0.0644531 7.02588C0.557897 3.34401 3.81051 0.500081 7.74951 0.5Z" fill="url(#paint0_radial_13193_106903)"/>
<path d="M15.9351 8.97339C15.4419 12.6556 12.1893 15.4998 8.25 15.4998C4.9729 15.4997 2.17095 13.5315 1.0376 10.7498H4.44482C5.581 12.121 7.32563 12.9997 9.2832 12.9998C12.0997 12.9998 14.4771 11.1823 15.2324 8.69312L15.9351 8.97339Z" fill="url(#paint1_radial_13193_106903)"/>
<path d="M6.87361 0.0795696C8.47718 -0.148514 10.1158 0.115411 11.5699 0.840301L11.857 0.99069C13.1753 1.71599 14.262 2.79879 14.9928 4.11369C14.997 4.07648 15.0006 4.03876 15.0006 4.00041V1.00046C15.0006 0.724317 15.2244 0.500462 15.5006 0.500462C15.7765 0.500675 16.0006 0.724448 16.0006 1.00046V4.00041C16.0003 5.10463 15.1048 6.00017 14.0006 6.00039H11.5006C11.2246 6.00039 11.0008 5.77632 11.0006 5.50039C11.0006 5.22426 11.2244 5.0004 11.5006 5.0004H14.0006C14.1092 5.00036 14.2132 4.98072 14.3111 4.94864C14.292 4.92377 14.275 4.89668 14.2603 4.86759L14.1275 4.61564C13.4881 3.45787 12.5334 2.50523 11.3746 1.86763L11.1236 1.7358C9.8512 1.10149 8.41742 0.870165 7.01424 1.06979L6.73494 1.11569C5.3366 1.37278 4.05137 2.04881 3.04938 3.05121L2.8531 3.25628C1.82554 4.37126 1.1877 5.78961 1.03571 7.29822L1.0279 7.349C0.977103 7.59718 0.745342 7.77136 0.487856 7.74548C0.213376 7.71772 0.0132212 7.47309 0.0405894 7.19861L0.0796519 6.87635C0.307166 5.27294 1.01678 3.77317 2.11774 2.57856C3.29224 1.30434 4.84893 0.445754 6.5533 0.132303L6.87361 0.0795696Z" fill="#F05F2B"/>
<path d="M15.5117 8.25434C15.7864 8.28201 15.9876 8.52746 15.96 8.80219L15.9209 9.12445C15.6933 10.7279 14.9829 12.2277 13.8818 13.4223L13.6572 13.6557C12.5122 14.8011 11.0442 15.5748 9.44629 15.8686L9.12597 15.9203C7.52255 16.1483 5.88467 15.8844 4.43066 15.1596L4.14355 15.0092C2.82461 14.2836 1.73762 13.2 1.00684 11.8842C1.00245 11.9222 1 11.9612 1 12.0004V15.0004C0.999774 15.2764 0.776003 15.5004 0.5 15.5004C0.241162 15.5004 0.0285954 15.3033 0.00292969 15.0512L0 15.0004V12.0004C-2.04798e-08 10.8959 0.895431 10.0004 2 10.0004H4.5C4.77614 10.0004 5 10.2243 5 10.5004C4.99977 10.7764 4.776 11.0004 4.5 11.0004H2C1.89082 11.0004 1.78585 11.0179 1.6875 11.0502C1.70721 11.0756 1.72528 11.1034 1.74023 11.1332C2.37652 12.4043 3.38352 13.4501 4.625 14.1332L4.87695 14.2651C6.1492 14.8992 7.58237 15.1296 8.98535 14.9301L9.26562 14.8852C10.6639 14.6281 11.9482 13.951 12.9502 12.9487L13.1465 12.7446C14.1742 11.6295 14.8128 10.2104 14.9648 8.7016L14.9727 8.65082C15.0235 8.40282 15.2544 8.22868 15.5117 8.25434Z" fill="#4397E0"/>
</g>
<defs>
<radialGradient id="paint0_radial_13193_106903" cx="0" cy="0" r="1" gradientUnits="userSpaceOnUse" gradientTransform="translate(12.9996 3.98889) rotate(-180) scale(12.4998 25.8657)">
<stop stop-color="#F05F2B" stop-opacity="0.3"/>
<stop offset="1" stop-color="#F05F2B" stop-opacity="0.1"/>
</radialGradient>
<radialGradient id="paint1_radial_13193_106903" cx="0" cy="0" r="1" gradientUnits="userSpaceOnUse" gradientTransform="translate(3.00003 11.4998) scale(10.4998 21.727)">
<stop stop-color="#4397E0" stop-opacity="0.3"/>
<stop offset="1" stop-color="#4397E0" stop-opacity="0.1"/>
</radialGradient>
<clipPath id="clip0_13193_106903">
<rect width="16" height="16" fill="white"/>
</clipPath>
</defs>
</svg>

<svg fill="none" viewBox="0 0 16 16" xmlns="http://www.w3.org/2000/svg">
  <g clip-path="url(#Sync-Color-16_svg__a)">
    <path fill="url(#Sync-Color-16_svg__b)" d="M7.75.5c3.277 0 6.079 1.968 7.212 4.75h-3.407A6.266 6.266 0 0 0 6.716 3C3.9 3 1.522 4.818.766 7.307l-.702-.281C.558 3.344 3.811.5 7.75.5Z"/>
    <path fill="url(#Sync-Color-16_svg__c)" d="M15.935 8.973C15.442 12.656 12.19 15.5 8.25 15.5c-3.277 0-6.08-1.969-7.212-4.75h3.407A6.266 6.266 0 0 0 9.283 13c2.817 0 5.194-1.818 5.95-4.307l.702.28Z"/>
    <path fill="#DE5833" d="M6.874.08a8.002 8.002 0 0 1 4.696.76l.287.15a8 8 0 0 1 3.136 3.124C14.997 4.076 15 4.039 15 4V1a.5.5 0 1 1 1 0v3a2 2 0 0 1-2 2h-2.5a.5.5 0 0 1 0-1H14c.108 0 .212-.02.31-.051a.512.512 0 0 1-.05-.081l-.133-.252a6.999 6.999 0 0 0-2.753-2.748l-.251-.132a7.002 7.002 0 0 0-4.11-.666l-.28.046A7.001 7.001 0 0 0 3.05 3.05l-.196.205a7 7 0 0 0-1.817 4.042l-.008.051a.5.5 0 0 1-.987-.15l.039-.323A8.001 8.001 0 0 1 6.553.132l.32-.052Z"/>
    <path fill="#3969EF" d="M15.512 8.254a.501.501 0 0 1 .448.548l-.04.322a8.002 8.002 0 0 1-2.038 4.298l-.225.234a8.001 8.001 0 0 1-4.21 2.213l-.321.051a8 8 0 0 1-4.695-.76l-.287-.15a8 8 0 0 1-3.137-3.126A1.015 1.015 0 0 0 1 12v3a.5.5 0 0 1-.997.051L0 15.001v-3a2 2 0 0 1 2-2h2.5a.5.5 0 0 1 0 1H2a1 1 0 0 0-.313.05.46.46 0 0 1 .053.082 7.001 7.001 0 0 0 2.885 3l.252.132a7 7 0 0 0 4.108.665l.28-.045a7.001 7.001 0 0 0 3.685-1.936l.197-.204a7.003 7.003 0 0 0 1.818-4.043l.008-.051a.5.5 0 0 1 .539-.397Z"/>
  </g>
  <defs>
    <radialGradient id="Sync-Color-16_svg__b" cx="0" cy="0" r="1" gradientTransform="matrix(-12.4998 0 0 -25.8657 13 3.989)" gradientUnits="userSpaceOnUse">
      <stop stop-color="#DE5833" stop-opacity=".3"/>
      <stop offset="1" stop-color="#DE5833" stop-opacity=".1"/>
    </radialGradient>
    <radialGradient id="Sync-Color-16_svg__c" cx="0" cy="0" r="1" gradientTransform="matrix(10.4998 0 0 21.727 3 11.5)" gradientUnits="userSpaceOnUse">
      <stop stop-color="#3969EF" stop-opacity=".3"/>
      <stop offset="1" stop-color="#3969EF" stop-opacity=".1"/>
    </radialGradient>
    <clipPath id="Sync-Color-16_svg__a">
      <path fill="#fff" d="M0 0h16v16H0z"/>
    </clipPath>
  </defs>
</svg>
